dist/svgs/circle-left2.svg

<svg xmlns="http://www.w3.org/2000/svg" viewBox="0 0 512 512"><path d="M0 256q0-55 20-99 19-47 54-82 35-34 82-55Q204 0 256 0q51 0 100 20 47 21 81 55 36 34 55 82 20 48 20 99 0 52-20 100-10 23-23.5 44T437 438q-34 34-81 55-47 19-100 19-55 0-100-19-47-21-82-55-34-34-54-82Q0 312 0 256zm256 128l30-29-81-81h187v-43H214l72-73-30-30-128 128z"/></svg>

<?xml version="1.0" encoding="UTF-8" standalone="no"?><svg   xmlns:svg="http://www.w3.org/2000/svg"   xmlns="http://www.w3.org/2000/svg"   version="1.1"   width="512"   height="512"   viewBox="0 0 512 512">  <path     d="M0 256Q0 201 20 157Q39 110 74 75Q109 41 156 20Q204 0 256 0Q307 0 356 20Q403 41 437 75Q473 109 492 157Q512 205 512 256Q512 308 492 356Q482 379 468.5 400T437 438Q403 472 356 493Q309 512 256 512Q201 512 156 493Q109 472 74 438Q40 404 20 356Q0 312 0 256zM256 384L286 355L205 274H392V231H214L286 158L256 128L128 256z"     id="circle-left2" /></svg>
